static/img/kroki/5839b661cf5820bf26b5e1359289e0ce.svg

<?xml version="1.0" encoding="us-ascii" standalone="no"?><svg xmlns="http://www.w3.org/2000/svg" xmlns:xlink="http://www.w3.org/1999/xlink" contentStyleType="text/css" height="1138px" preserveAspectRatio="none" style="width:398px;height:1138px;" version="1.1" viewBox="0 0 398 1138" width="398px" zoomAndPan="magnify"><defs/><g><!--class gcp_deprecation_status--><g id="elem_gcp_deprecation_status"><rect codeLine="22" fill="#3D176E" height="179.2734" id="gcp_deprecation_status" rx="2.5" ry="2.5" style="stroke:#000D19;stroke-width:0.5;" width="237" x="101.5" y="952.01"/><ellipse cx="116.5" cy="971.9045" fill="#ADD1B2" rx="11" ry="11" style="stroke:#181818;stroke-width:1.0;"/><path d="M119.4688,977.5452 Q118.8906,977.842 118.25,977.9827 Q117.6094,978.1389 116.9063,978.1389 Q114.4063,978.1389 113.0781,976.4983 Q111.7656,974.842 111.7656,971.717 Q111.7656,968.592 113.0781,966.9358 Q114.4063,965.2795 116.9063,965.2795 Q117.6094,965.2795 118.25,965.4358 Q118.9063,965.592 119.4688,965.8889 L119.4688,968.6077 Q118.8438,968.0295 118.25,967.7639 Q117.6563,967.4827 117.0313,967.4827 Q115.6875,967.4827 115,968.5608 Q114.3125,969.6233 114.3125,971.717 Q114.3125,973.8108 115,974.8889 Q115.6875,975.9514 117.0313,975.9514 Q117.6563,975.9514 118.25,975.6858 Q118.8438,975.4045 119.4688,974.8264 L119.4688,977.5452 Z " fill="#000000"/><text fill="#D9B8FF" font-family="Helvetica" font-size="17" lengthAdjust="spacing" textLength="195" x="135.5" y="977.7898">gcp_deprecation_status</text><line style="stroke:#000D19;stroke-width:0.5;" x1="102.5" x2="337.5" y1="991.7991" y2="991.7991"/><text fill="#D9B8FF" font-family="sans-serif" font-size="14" font-weight="bold" lengthAdjust="spacing" textLength="60" x="112.5" y="1013.7942">deleted</text><text fill="#D9B8FF" font-family="sans-serif" font-size="14" lengthAdjust="spacing" textLength="48" x="172.5" y="1013.7942">: string</text><text fill="#D9B8FF" font-family="sans-serif" font-size="14" font-weight="bold" lengthAdjust="spacing" textLength="91" x="112.5" y="1040.0911">deprecated</text><text fill="#D9B8FF" font-family="sans-serif" font-size="14" lengthAdjust="spacing" textLength="48" x="203.5" y="1040.0911">: string</text><text fill="#D9B8FF" font-family="sans-serif" font-size="14" font-weight="bold" lengthAdjust="spacing" textLength="69" x="112.5" y="1066.3879">obsolete</text><text fill="#D9B8FF" font-family="sans-serif" font-size="14" lengthAdjust="spacing" textLength="48" x="181.5" y="1066.3879">: string</text><text fill="#D9B8FF" font-family="sans-serif" font-size="14" font-weight="bold" lengthAdjust="spacing" textLength="99" x="112.5" y="1092.6848">replacement</text><text fill="#D9B8FF" font-family="sans-serif" font-size="14" lengthAdjust="spacing" textLength="48" x="211.5" y="1092.6848">: string</text><text fill="#D9B8FF" font-family="sans-serif" font-size="14" font-weight="bold" lengthAdjust="spacing" textLength="40" x="112.5" y="1118.9817">state</text><text fill="#D9B8FF" font-family="sans-serif" font-size="14" lengthAdjust="spacing" textLength="48" x="152.5" y="1118.9817">: string</text></g><!--class gcp_resource--><g id="elem_gcp_resource"><rect codeLine="29" fill="#3D176E" height="152.9766" id="gcp_resource" rx="2.5" ry="2.5" style="stroke:#000D19;stroke-width:0.5;" width="348" x="7" y="438.76"/><ellipse cx="117.75" cy="458.6545" fill="#ADD1B2" rx="11" ry="11" style="stroke:#181818;stroke-width:1.0;"/><path d="M120.7188,464.2952 Q120.1406,464.592 119.5,464.7327 Q118.8594,464.8889 118.1563,464.8889 Q115.6563,464.8889 114.3281,463.2483 Q113.0156,461.592 113.0156,458.467 Q113.0156,455.342 114.3281,453.6858 Q115.6563,452.0295 118.1563,452.0295 Q118.8594,452.0295 119.5,452.1858 Q120.1563,452.342 120.7188,452.6389 L120.7188,455.3577 Q120.0938,454.7795 119.5,454.5139 Q118.9063,454.2327 118.2813,454.2327 Q116.9375,454.2327 116.25,455.3108 Q115.5625,456.3733 115.5625,458.467 Q115.5625,460.5608 116.25,461.6389 Q116.9375,462.7014 118.2813,462.7014 Q118.9063,462.7014 119.5,462.4358 Q120.0938,462.1545 120.7188,461.5764 L120.7188,464.2952 Z " fill="#000000"/><text fill="#D9B8FF" font-family="Helvetica" font-size="17" lengthAdjust="spacing" textLength="108" x="143.25" y="464.5398">gcp_resource</text><line style="stroke:#000D19;stroke-width:0.5;" x1="8" x2="354" y1="478.5491" y2="478.5491"/><text fill="#D9B8FF" font-family="sans-serif" font-size="14" font-weight="bold" lengthAdjust="spacing" textLength="151" x="18" y="500.5442">deprecation_status</text><text fill="#D9B8FF" font-family="sans-serif" font-size="14" lengthAdjust="spacing" textLength="175" x="169" y="500.5442">: gcp_deprecation_status</text><text fill="#D9B8FF" font-family="sans-serif" font-size="14" font-weight="bold" lengthAdjust="spacing" textLength="89" x="18" y="526.8411">description</text><text fill="#D9B8FF" font-family="sans-serif" font-size="14" lengthAdjust="spacing" textLength="48" x="107" y="526.8411">: string</text><text fill="#D9B8FF" font-family="sans-serif" font-size="14" font-weight="bold" lengthAdjust="spacing" textLength="128" x="18" y="553.1379">label_fingerprint</text><text fill="#D9B8FF" font-family="sans-serif" font-size="14" lengthAdjust="spacing" textLength="48" x="146" y="553.1379">: string</text><text fill="#D9B8FF" font-family="sans-serif" font-size="14" font-weight="bold" lengthAdjust="spacing" textLength="27" x="18" y="579.4348">link</text><text fill="#D9B8FF" font-family="sans-serif" font-size="14" lengthAdjust="spacing" textLength="48" x="45" y="579.4348">: string</text></g><!--class gcp_target_pool--><g id="elem_gcp_target_pool"><rect codeLine="35" fill="#3D176E" height="179.2734" id="gcp_target_pool" rx="2.5" ry="2.5" style="stroke:#000D19;stroke-width:0.5;" width="192" x="199" y="712.73"/><ellipse cx="222.1" cy="732.6245" fill="#ADD1B2" rx="11" ry="11" style="stroke:#181818;stroke-width:1.0;"/><path d="M225.0688,738.2652 Q224.4906,738.562 223.85,738.7027 Q223.2094,738.8589 222.5063,738.8589 Q220.0063,738.8589 218.6781,737.2183 Q217.3656,735.562 217.3656,732.437 Q217.3656,729.312 218.6781,727.6558 Q220.0063,725.9995 222.5063,725.9995 Q223.2094,725.9995 223.85,726.1558 Q224.5063,726.312 225.0688,726.6089 L225.0688,729.3277 Q224.4438,728.7495 223.85,728.4839 Q223.2563,728.2027 222.6313,728.2027 Q221.2875,728.2027 220.6,729.2808 Q219.9125,730.3433 219.9125,732.437 Q219.9125,734.5308 220.6,735.6089 Q221.2875,736.6714 222.6313,736.6714 Q223.2563,736.6714 223.85,736.4058 Q224.4438,736.1245 225.0688,735.5464 L225.0688,738.2652 Z " fill="#000000"/><text fill="#D9B8FF" font-family="Helvetica" font-size="17" lengthAdjust="spacing" textLength="132" x="242.9" y="738.5098">gcp_target_pool</text><line style="stroke:#000D19;stroke-width:0.5;" x1="200" x2="390" y1="752.5191" y2="752.5191"/><text fill="#D9B8FF" font-family="sans-serif" font-size="14" font-weight="bold" lengthAdjust="spacing" textLength="98" x="210" y="774.5142">backup_pool</text><text fill="#D9B8FF" font-family="sans-serif" font-size="14" lengthAdjust="spacing" textLength="48" x="308" y="774.5142">: string</text><text fill="#D9B8FF" font-family="sans-serif" font-size="14" font-weight="bold" lengthAdjust="spacing" textLength="102" x="210" y="800.8111">failover_ratio</text><text fill="#D9B8FF" font-family="sans-serif" font-size="14" lengthAdjust="spacing" textLength="57" x="312" y="800.8111">: double</text><text fill="#D9B8FF" font-family="sans-serif" font-size="14" font-weight="bold" lengthAdjust="spacing" textLength="112" x="210" y="827.1079">health_checks</text><text fill="#D9B8FF" font-family="sans-serif" font-size="14" lengthAdjust="spacing" textLength="58" x="322" y="827.1079">: string[]</text><text fill="#D9B8FF" font-family="sans-serif" font-size="14" font-weight="bold" lengthAdjust="spacing" textLength="76" x="210" y="853.4048">instances</text><text fill="#D9B8FF" font-family="sans-serif" font-size="14" lengthAdjust="spacing" textLength="58" x="286" y="853.4048">: string[]</text><text fill="#D9B8FF" font-family="sans-serif" font-size="14" font-weight="bold" lengthAdjust="spacing" textLength="122" x="210" y="879.7017">session_affinity</text><text fill="#D9B8FF" font-family="sans-serif" font-size="14" lengthAdjust="spacing" textLength="48" x="332" y="879.7017">: string</text></g><!--class resource--><g id="elem_resource"><rect codeLine="42" fill="#3D176E" height="310.7578" id="resource" rx="2.5" ry="2.5" style="stroke:#000D19;stroke-width:0.5;" width="227" x="67.5" y="7"/><ellipse cx="136.25" cy="26.8945" fill="#ADD1B2" rx="11" ry="11" style="stroke:#181818;stroke-width:1.0;"/><path d="M139.2188,32.5352 Q138.6406,32.832 138,32.9727 Q137.3594,33.1289 136.6563,33.1289 Q134.1563,33.1289 132.8281,31.4883 Q131.5156,29.832 131.5156,26.707 Q131.5156,23.582 132.8281,21.9258 Q134.1563,20.2695 136.6563,20.2695 Q137.3594,20.2695 138,20.4258 Q138.6563,20.582 139.2188,20.8789 L139.2188,23.5977 Q138.5938,23.0195 138,22.7539 Q137.4063,22.4727 136.7813,22.4727 Q135.4375,22.4727 134.75,23.5508 Q134.0625,24.6133 134.0625,26.707 Q134.0625,28.8008 134.75,29.8789 Q135.4375,30.9414 136.7813,30.9414 Q137.4063,30.9414 138,30.6758 Q138.5938,30.3945 139.2188,29.8164 L139.2188,32.5352 Z " fill="#000000"/><text fill="#D9B8FF" font-family="Helvetica" font-size="17" lengthAdjust="spacing" textLength="71" x="161.75" y="32.7798">resource</text><line style="stroke:#000D19;stroke-width:0.5;" x1="68.5" x2="293.5" y1="46.7891" y2="46.7891"/><text fill="#D9B8FF" font-family="sans-serif" font-size="14" font-weight="bold" lengthAdjust="spacing" textLength="29" x="78.5" y="68.7842">age</text><text fill="#D9B8FF" font-family="sans-serif" font-size="14" lengthAdjust="spacing" textLength="66" x="107.5" y="68.7842">: duration</text><text fill="#D9B8FF" font-family="sans-serif" font-size="14" font-weight="bold" lengthAdjust="spacing" textLength="43" x="78.5" y="95.0811">atime</text><text fill="#D9B8FF" font-family="sans-serif" font-size="14" lengthAdjust="spacing" textLength="70" x="121.5" y="95.0811">: datetime</text><text fill="#D9B8FF" font-family="sans-serif" font-size="14" font-weight="bold" lengthAdjust="spacing" textLength="43" x="78.5" y="121.3779">ctime</text><text fill="#D9B8FF" font-family="sans-serif" font-size="14" lengthAdjust="spacing" textLength="70" x="121.5" y="121.3779">: datetime</text><text fill="#D9B8FF" font-family="sans-serif" font-size="14" font-weight="bold" lengthAdjust="spacing" textLength="14" x="78.5" y="147.6748">id</text><text fill="#D9B8FF" font-family="sans-serif" font-size="14" lengthAdjust="spacing" textLength="48" x="92.5" y="147.6748">: string</text><text fill="#D9B8FF" font-family="sans-serif" font-size="14" font-weight="bold" lengthAdjust="spacing" textLength="33" x="78.5" y="173.9717">kind</text><text fill="#D9B8FF" font-family="sans-serif" font-size="14" lengthAdjust="spacing" textLength="48" x="111.5" y="173.9717">: string</text><text fill="#D9B8FF" font-family="sans-serif" font-size="14" font-weight="bold" lengthAdjust="spacing" textLength="90" x="78.5" y="200.2686">last_access</text><text fill="#D9B8FF" font-family="sans-serif" font-size="14" lengthAdjust="spacing" textLength="66" x="168.5" y="200.2686">: duration</text><text fill="#D9B8FF" font-family="sans-serif" font-size="14" font-weight="bold" lengthAdjust="spacing" textLength="90" x="78.5" y="226.5654">last_update</text><text fill="#D9B8FF" font-family="sans-serif" font-size="14" lengthAdjust="spacing" textLength="66" x="168.5" y="226.5654">: duration</text><text fill="#D9B8FF" font-family="sans-serif" font-size="14" font-weight="bold" lengthAdjust="spacing" textLength="48" x="78.5" y="252.8623">mtime</text><text fill="#D9B8FF" font-family="sans-serif" font-size="14" lengthAdjust="spacing" textLength="70" x="126.5" y="252.8623">: datetime</text><text fill="#D9B8FF" font-family="sans-serif" font-size="14" font-weight="bold" lengthAdjust="spacing" textLength="43" x="78.5" y="279.1592">name</text><text fill="#D9B8FF" font-family="sans-serif" font-size="14" lengthAdjust="spacing" textLength="48" x="121.5" y="279.1592">: string</text><text fill="#D9B8FF" font-family="sans-serif" font-size="14" font-weight="bold" lengthAdjust="spacing" textLength="34" x="78.5" y="305.4561">tags</text><text fill="#D9B8FF" font-family="sans-serif" font-size="14" lengthAdjust="spacing" textLength="171" x="112.5" y="305.4561">: dictionary[string, string]</text></g><!--link gcp_resource to gcp_deprecation_status--><g id="link_gcp_resource_gcp_deprecation_status"><path codeLine="54" d="M175.32,592.18 C170.96,668.34 167.69,788.81 181,892.01 C183.29,909.75 187.06,928.4 191.37,946.26 " fill="none" id="gcp_resource-to-gcp_deprecation_status" style="stroke:#FFAF37;stroke-width:2.0;"/><polygon fill="#FFAF37" points="192.72,950.77,194.4446,941.0733,191.5208,945.9159,186.6781,942.9921,192.72,950.77" style="stroke:#FFAF37;stroke-width:2.0;"/></g><!--reverse link resource to gcp_resource--><g id="link_resource_gcp_resource"><path codeLine="55" d="M181,338.65 C181,373.73 181,408.82 181,438.31 " fill="none" id="resource-backto-gcp_resource" style="stroke:#FFAF37;stroke-width:2.0;"/><polygon fill="none" points="174,339.04,181,319.04,188,339.04,174,339.04" style="stroke:#FFAF37;stroke-width:2.0;"/></g><!--link gcp_target_pool to gcp_deprecation_status--><g id="link_gcp_target_pool_gcp_deprecation_status"><path codeLine="56" d="M266.86,892.4 C261.32,909.91 255.49,928.35 249.9,946.05 " fill="none" id="gcp_target_pool-to-gcp_deprecation_status" style="stroke:#FFAF37;stroke-width:2.0;"/><polygon fill="#FFAF37" points="248.17,950.51,254.685,943.1239,249.6695,945.7401,247.0532,940.7247,248.17,950.51" style="stroke:#FFAF37;stroke-width:2.0;"/></g><!--reverse link gcp_resource to gcp_target_pool--><g id="link_gcp_resource_gcp_target_pool"><path codeLine="57" d="M218.95,611.16 C232.01,643.83 246.58,680.27 259.44,712.44 " fill="none" id="gcp_resource-backto-gcp_target_pool" style="stroke:#FFAF37;stroke-width:2.0;"/><polygon fill="none" points="212.18,614.07,211.25,592.9,225.18,608.88,212.18,614.07" style="stroke:#FFAF37;stroke-width:2.0;"/></g><!--SRC=[XPDRQnin48NV_IiMycPgi1jQ9wKKKaDfNq9f-XR2CYlDxWfh9J6QJN0l_xtIhfj8wqlUlETycZapabibiS3EyQxeiAkG_CnlbN50q1KtHFPfOxMbugAkeRvSJyqlrl2hm2rqM7n5_OYi14o9dwqIMuFU5syJwpE8RKEsDt8ipmJ61miD9zH6W_StpAIgdZ498w-hgxgUajEY5vTojNwF1vWbYRH7bikbN5rFaLTRdPtxcRXJlx1OfKkxjOm7CGzQ3DJPb958GXuC-jy_cV4xIAbCKxnBj1zZ9Z98cNxNWhHFaQv1-xIDPoIql7EuEPWAhwzalJuAVpi5YxYveX6kbEW81R2oflGCtFlYzsm-bwYHKSxd7q8v2f46RKGdigsyZN0c4ZeD0hlmpZ8zjaZ9lqaKGczx4hWFCCqLJnrFFE1Ua79HpFffg52NTVX0Sa7BqsXbjYV2C523N3fhzP2d2flitV2TbQX1QVk8L59C52rf-qfZi5e4pMqfMXHR_tBe_Y5uoeJeHk1Kz-4F70U3EcHMl3kIBbiJDCCsPJ-qDr5XrOrQs7Jy7JHnH5FvBORN8oURyro2217zfCFWz4xkRp9nkYDz37Jvqs1enefAn6D0k_lHUxDd7iAesNjOB3wTklbdvkEVnMAHFQFPz1hFbCdQlPHAJly3]--></g></svg>

<svg xmlns="http://www.w3.org/2000/svg" width="398" height="1138" preserveAspectRatio="none" style="width:398px;height:1138px"><rect width="237" height="179.273" x="101.5" y="952.01" fill="#3D176E" rx="2.5" ry="2.5" style="stroke:#000d19;stroke-width:.5"/><circle cx="116.5" cy="971.904" r="11" fill="#ADD1B2" style="stroke:#181818;stroke-width:1"/><path d="M119.469 977.545q-.578.297-1.219.438-.64.156-1.344.156-2.5 0-3.828-1.64-1.312-1.657-1.312-4.782t1.312-4.781q1.328-1.657 3.828-1.657.703 0 1.344.157.656.156 1.219.453v2.719q-.625-.578-1.219-.844-.594-.281-1.219-.281-1.344 0-2.031 1.078-.688 1.062-.688 3.156 0 2.094.688 3.172.688 1.062 2.031 1.062.625 0 1.219-.265.594-.282 1.219-.86v2.72Z"/><text x="135.5" y="977.79" fill="#D9B8FF" font-family="Helvetica" font-size="17" textLength="195">gcp_deprecation_status</text><path d="M102.5 991.799h235" style="stroke:#000d19;stroke-width:.5"/><text x="112.5" y="1013.794" fill="#D9B8FF" font-family="sans-serif" font-size="14" font-weight="bold" textLength="60">deleted</text><text x="172.5" y="1013.794" fill="#D9B8FF" font-family="sans-serif" font-size="14" textLength="48">: string</text><text x="112.5" y="1040.091" fill="#D9B8FF" font-family="sans-serif" font-size="14" font-weight="bold" textLength="91">deprecated</text><text x="203.5" y="1040.091" fill="#D9B8FF" font-family="sans-serif" font-size="14" textLength="48">: string</text><text x="112.5" y="1066.388" fill="#D9B8FF" font-family="sans-serif" font-size="14" font-weight="bold" textLength="69">obsolete</text><text x="181.5" y="1066.388" fill="#D9B8FF" font-family="sans-serif" font-size="14" textLength="48">: string</text><text x="112.5" y="1092.685" fill="#D9B8FF" font-family="sans-serif" font-size="14" font-weight="bold" textLength="99">replacement</text><text x="211.5" y="1092.685" fill="#D9B8FF" font-family="sans-serif" font-size="14" textLength="48">: string</text><text x="112.5" y="1118.982" fill="#D9B8FF" font-family="sans-serif" font-size="14" font-weight="bold" textLength="40">state</text><text x="152.5" y="1118.982" fill="#D9B8FF" font-family="sans-serif" font-size="14" textLength="48">: string</text><rect width="348" height="152.977" x="7" y="438.76" fill="#3D176E" rx="2.5" ry="2.5" style="stroke:#000d19;stroke-width:.5"/><circle cx="117.75" cy="458.654" r="11" fill="#ADD1B2" style="stroke:#181818;stroke-width:1"/><path d="M120.719 464.295q-.578.297-1.219.438-.64.156-1.344.156-2.5 0-3.828-1.64-1.312-1.657-1.312-4.782t1.312-4.781q1.328-1.656 3.828-1.656.703 0 1.344.156.656.156 1.219.453v2.719q-.625-.579-1.219-.844-.594-.281-1.219-.281-1.344 0-2.031 1.078-.688 1.062-.688 3.156 0 2.094.688 3.172.688 1.062 2.031 1.062.625 0 1.219-.265.594-.281 1.219-.86v2.72Z"/><text x="143.25" y="464.54" fill="#D9B8FF" font-family="Helvetica" font-size="17" textLength="108">gcp_resource</text><path d="M8 478.549h346" style="stroke:#000d19;stroke-width:.5"/><text x="18" y="500.544" fill="#D9B8FF" font-family="sans-serif" font-size="14" font-weight="bold" textLength="151">deprecation_status</text><text x="169" y="500.544" fill="#D9B8FF" font-family="sans-serif" font-size="14" textLength="175">: gcp_deprecation_status</text><text x="18" y="526.841" fill="#D9B8FF" font-family="sans-serif" font-size="14" font-weight="bold" textLength="89">description</text><text x="107" y="526.841" fill="#D9B8FF" font-family="sans-serif" font-size="14" textLength="48">: string</text><text x="18" y="553.138" fill="#D9B8FF" font-family="sans-serif" font-size="14" font-weight="bold" textLength="128">label_fingerprint</text><text x="146" y="553.138" fill="#D9B8FF" font-family="sans-serif" font-size="14" textLength="48">: string</text><text x="18" y="579.435" fill="#D9B8FF" font-family="sans-serif" font-size="14" font-weight="bold" textLength="27">link</text><text x="45" y="579.435" fill="#D9B8FF" font-family="sans-serif" font-size="14" textLength="48">: string</text><rect width="192" height="179.273" x="199" y="712.73" fill="#3D176E" rx="2.5" ry="2.5" style="stroke:#000d19;stroke-width:.5"/><circle cx="222.1" cy="732.625" r="11" fill="#ADD1B2" style="stroke:#181818;stroke-width:1"/><path d="M225.069 738.265q-.578.297-1.219.438-.64.156-1.344.156-2.5 0-3.828-1.64-1.312-1.657-1.312-4.782t1.312-4.781q1.328-1.656 3.828-1.656.703 0 1.344.156.656.156 1.219.453v2.719q-.625-.578-1.219-.844-.594-.281-1.219-.281-1.344 0-2.031 1.078-.688 1.062-.688 3.156 0 2.094.688 3.172.688 1.062 2.031 1.062.625 0 1.219-.265.594-.281 1.219-.86v2.72Z"/><text x="242.9" y="738.51" fill="#D9B8FF" font-family="Helvetica" font-size="17" textLength="132">gcp_target_pool</text><path d="M200 752.519h190" style="stroke:#000d19;stroke-width:.5"/><text x="210" y="774.514" fill="#D9B8FF" font-family="sans-serif" font-size="14" font-weight="bold" textLength="98">backup_pool</text><text x="308" y="774.514" fill="#D9B8FF" font-family="sans-serif" font-size="14" textLength="48">: string</text><text x="210" y="800.811" fill="#D9B8FF" font-family="sans-serif" font-size="14" font-weight="bold" textLength="102">failover_ratio</text><text x="312" y="800.811" fill="#D9B8FF" font-family="sans-serif" font-size="14" textLength="57">: double</text><text x="210" y="827.108" fill="#D9B8FF" font-family="sans-serif" font-size="14" font-weight="bold" textLength="112">health_checks</text><text x="322" y="827.108" fill="#D9B8FF" font-family="sans-serif" font-size="14" textLength="58">: string[]</text><text x="210" y="853.405" fill="#D9B8FF" font-family="sans-serif" font-size="14" font-weight="bold" textLength="76">instances</text><text x="286" y="853.405" fill="#D9B8FF" font-family="sans-serif" font-size="14" textLength="58">: string[]</text><text x="210" y="879.702" fill="#D9B8FF" font-family="sans-serif" font-size="14" font-weight="bold" textLength="122">session_affinity</text><text x="332" y="879.702" fill="#D9B8FF" font-family="sans-serif" font-size="14" textLength="48">: string</text><rect width="227" height="310.758" x="67.5" y="7" fill="#3D176E" rx="2.5" ry="2.5" style="stroke:#000d19;stroke-width:.5"/><circle cx="136.25" cy="26.895" r="11" fill="#ADD1B2" style="stroke:#181818;stroke-width:1"/><path d="M139.219 32.535q-.578.297-1.219.438-.64.156-1.344.156-2.5 0-3.828-1.64-1.312-1.657-1.312-4.782t1.312-4.781q1.328-1.656 3.828-1.656.703 0 1.344.156.656.156 1.219.453v2.719q-.625-.578-1.219-.844-.594-.281-1.219-.281-1.344 0-2.031 1.078-.688 1.062-.688 3.156 0 2.094.688 3.172.688 1.062 2.031 1.062.625 0 1.219-.265.594-.281 1.219-.86v2.72Z"/><text x="161.75" y="32.78" fill="#D9B8FF" font-family="Helvetica" font-size="17" textLength="71">resource</text><path d="M68.5 46.789h225" style="stroke:#000d19;stroke-width:.5"/><text x="78.5" y="68.784" fill="#D9B8FF" font-family="sans-serif" font-size="14" font-weight="bold" textLength="29">age</text><text x="107.5" y="68.784" fill="#D9B8FF" font-family="sans-serif" font-size="14" textLength="66">: duration</text><text x="78.5" y="95.081" fill="#D9B8FF" font-family="sans-serif" font-size="14" font-weight="bold" textLength="43">atime</text><text x="121.5" y="95.081" fill="#D9B8FF" font-family="sans-serif" font-size="14" textLength="70">: datetime</text><text x="78.5" y="121.378" fill="#D9B8FF" font-family="sans-serif" font-size="14" font-weight="bold" textLength="43">ctime</text><text x="121.5" y="121.378" fill="#D9B8FF" font-family="sans-serif" font-size="14" textLength="70">: datetime</text><text x="78.5" y="147.675" fill="#D9B8FF" font-family="sans-serif" font-size="14" font-weight="bold" textLength="14">id</text><text x="92.5" y="147.675" fill="#D9B8FF" font-family="sans-serif" font-size="14" textLength="48">: string</text><text x="78.5" y="173.972" fill="#D9B8FF" font-family="sans-serif" font-size="14" font-weight="bold" textLength="33">kind</text><text x="111.5" y="173.972" fill="#D9B8FF" font-family="sans-serif" font-size="14" textLength="48">: string</text><text x="78.5" y="200.269" fill="#D9B8FF" font-family="sans-serif" font-size="14" font-weight="bold" textLength="90">last_access</text><text x="168.5" y="200.269" fill="#D9B8FF" font-family="sans-serif" font-size="14" textLength="66">: duration</text><text x="78.5" y="226.565" fill="#D9B8FF" font-family="sans-serif" font-size="14" font-weight="bold" textLength="90">last_update</text><text x="168.5" y="226.565" fill="#D9B8FF" font-family="sans-serif" font-size="14" textLength="66">: duration</text><text x="78.5" y="252.862" fill="#D9B8FF" font-family="sans-serif" font-size="14" font-weight="bold" textLength="48">mtime</text><text x="126.5" y="252.862" fill="#D9B8FF" font-family="sans-serif" font-size="14" textLength="70">: datetime</text><text x="78.5" y="279.159" fill="#D9B8FF" font-family="sans-serif" font-size="14" font-weight="bold" textLength="43">name</text><text x="121.5" y="279.159" fill="#D9B8FF" font-family="sans-serif" font-size="14" textLength="48">: string</text><text x="78.5" y="305.456" fill="#D9B8FF" font-family="sans-serif" font-size="14" font-weight="bold" textLength="34">tags</text><text x="112.5" y="305.456" fill="#D9B8FF" font-family="sans-serif" font-size="14" textLength="171">: dictionary[string, string]</text><path fill="none" d="M175.32 592.18c-4.36 76.16-7.63 196.63 5.68 299.83 2.29 17.74 6.06 36.39 10.37 54.25" style="stroke:#ffaf37;stroke-width:2"/><path fill="#FFAF37" d="m192.72 950.77 1.725-9.697-2.924 4.843-4.843-2.924 6.042 7.778z" style="stroke:#ffaf37;stroke-width:2"/><path fill="none" d="M181 338.65v99.66m-7-99.27 7-20 7 20h-14zm92.86 553.36c-5.54 17.51-11.37 35.95-16.96 53.65" style="stroke:#ffaf37;stroke-width:2"/><path fill="#FFAF37" d="m248.17 950.51 6.515-7.386-5.016 2.616-2.616-5.015 1.117 9.785z" style="stroke:#ffaf37;stroke-width:2"/><path fill="none" d="m218.95 611.16 40.49 101.28m-47.26-98.37-.93-21.17 13.93 15.98-13 5.19z" style="stroke:#ffaf37;stroke-width:2"/></svg>
